svg/u1f35e.svg

<svg viewBox="0 0 128 128" xmlns="http://www.w3.org/2000/svg">
  <path d="M12.71,56.61c0,0-0.71,25.48-0.71,29s-0.31,7.14,2.48,9.31c1.69,1.32,9.48,7.18,19.87,13.04 s24.27,12.83,27.12,14c2.85,1.17,6.11,0.52,9.77-0.84c3.35-1.24,10.84-5.03,21.73-10.56s15.9-8.32,18.94-10.73 c2.3-1.82,4.52-4.19,4.19-8.38c-0.34-4.19-0.24-13.71-0.57-17.73c-0.34-4.02-0.6-18.73-0.6-18.73l8.96-16.45c0,0-0.22-3.43-1-5.55 c-1.16-3.16-3.31-4.86-3.31-4.86L48.91,15.74c0,0-36.07,8.52-38.07,9.68c-2,1.16-7.19,5.47-7.05,13.15 C4,49.6,12.71,56.61,12.71,56.61z" fill="#E07F14"/>
  <path d="M17.39,55.09c0,0-1.33,29.35-0.62,33.58c0.59,3.54,11.4,9.85,19.28,14.35 c7.1,4.06,22.15,10.43,24.21,11.41c2.06,0.98,3.04-0.87,3.04-2.5s0.11-36.89,0.11-36.89s9.16-1.63,10.89-9.77 s-7.57-21.02-32.49-30.7C16.09,24.6,8.55,30.39,8.25,37.57C7.82,48.21,17.39,55.09,17.39,55.09z" fill="#FFEBCA"/>
  <path d="M81.46,57.13c0,0,2.9,10.21-2.45,15.86c-5.42,5.72-9.98,6.73-9.98,6.73s-0.37,4.61-0.15,5.15 c0.51,1.27,16.53-5.26,26.62-9.49c8.89-3.73,19.64-8.24,19.64-8.24s-0.33-4.99,0-4.88s5.53-4.99,7.38-11.61 c1.84-6.62,1.38-12.08,1.38-12.08s-16.63,6.94-22.42,9.58C95.94,50.67,83.98,55.75,81.46,57.13z" fill="#AC5811"/>
  <path d="M76.94,48.77c0.66,0.72,44.61-18.42,44.61-18.42S106.58,6.8,68.93,6.16 C30.42,5.5,8.62,26.29,8.16,27.55c-0.36,0.98,6.96-8.59,31.48-0.67S73.32,44.85,76.94,48.77z" fill="#F5B03E"/>
</svg>

<svg viewBox="0 0 128 128" xmlns="http://www.w3.org/2000/svg">
  <defs/>
  <path d="M12.71,56.61 C12.71,56.61 12,82.09 12,85.61 C12,89.13 11.69,92.75 14.48,94.92 C16.17,96.24 23.96,102.1 34.35,107.96 C44.74,113.82 58.62,120.79 61.47,121.96 C64.32,123.13 67.58,122.48 71.24,121.12 C74.59,119.88 82.08,116.09 92.97,110.56 C103.86,105.03 108.87,102.24 111.91,99.83 C114.21,98.01 116.43,95.64 116.1,91.45 C115.76,87.26 115.86,77.74 115.53,73.72 C115.19,69.7 114.93,54.99 114.93,54.99 L123.89,38.54 C123.89,38.54 123.67,35.11 122.89,32.99 C121.73,29.83 119.58,28.13 119.58,28.13 L48.91,15.74 C48.91,15.74 12.84,24.26 10.84,25.42 C8.84,26.58 3.65,30.89 3.79,38.57 C4,49.6 12.71,56.61 12.71,56.61 Z" fill="#E07F14"/>
  <path d="M17.39,55.09 C17.39,55.09 16.06,84.44 16.77,88.67 C17.36,92.21 28.17,98.52 36.05,103.02 C43.15,107.08 58.2,113.45 60.26,114.43 C62.32,115.41 63.3,113.56 63.3,111.93 C63.3,110.3 63.41,75.04 63.41,75.04 C63.41,75.04 72.57,73.41 74.3,65.27 C76.03,57.13 66.73,44.25 41.81,34.57 C16.09,24.6 8.55,30.39 8.25,37.57 C7.82,48.21 17.39,55.09 17.39,55.09 Z" fill="#FFEBCA"/>
  <path d="M81.46,57.13 C81.46,57.13 84.36,67.34 79.01,72.99 C73.59,78.71 69.03,79.72 69.03,79.72 C69.03,79.72 68.66,84.33 68.88,84.87 C69.39,86.14 85.41,79.61 95.5,75.38 C104.39,71.65 115.14,67.14 115.14,67.14 C115.14,67.14 114.81,62.15 115.14,62.26 C115.47,62.37 120.67,57.27 122.52,50.65 C124.36,44.03 123.9,38.57 123.9,38.57 C123.9,38.57 107.27,45.51 101.48,48.15 C95.94,50.67 83.98,55.75 81.46,57.13 Z" fill="#AC5811"/>
  <path d="M76.94,48.77 C77.6,49.49 121.55,30.35 121.55,30.35 C121.55,30.35 106.58,6.8 68.93,6.16 C30.42,5.5 8.62,26.29 8.16,27.55 C7.8,28.53 15.12,18.96 39.64,26.88 C64.16,34.8 73.32,44.85 76.94,48.77 Z" fill="#F5B03E"/>
</svg>
